X: 8
T:McDonnell's Rant (#188)
M:9/8
L:1/8
S:O'Farrell's National Irish Music 1797
K:G
c|:BAG GAG GDG|BAG GDG ABc|1BAG GAG GDG|cAF FAF ABc:|
2GBd gag gdB|cAF FAF ABc||:ded/2c/2 BGG BGG|ded/2c/2 BGG ABc|
1ded/2c/2 BGG BGG|cAF FAF ABc:|2GBd gag gdB|cAF FAF ABc||

